X: 14606
T: Gan Ainm
R: reel
M: 4/4
K: Adorian
|:(3EFG AB cBAB|GB ed ^cA AG|(3EFG AB cBGB|d2 ed ^cAAG|
(3EFG AB cBAB|GBdB cBcd|efgf edd^c|1 dged ^cAAG:|2 dged c4||
|:gfed c2 B2|Aaa2 B3c|gfed dBGB|d2 ed (3Bcd ef|
gfed (3Bcd ed|eaab afge|edge edd^c|1 dged c4:|2 dged ^cAAG||

